Gurmukhi/0A14.svg

<svg enable-background="new 0 0 336 592" viewBox="0 0 336 592" xmlns="http://www.w3.org/2000/svg"><path d="m182.744873 344.654327c-3.748627 6.814362-8.305084 12.511139-13.967804 17.294373-6.144012 5.189758-13.122284 6.169617-18.892822 2.721863-5.263046-3.144562-8.134094-10.38498-6.693161-17.560669 3.085205-15.363953 11.193039-28.245423 21.692581-39.305084 5.357269-5.643067 7.283325-11.701722 7.670319-18.718964.875946-15.883728-1.038041-31.561798-4.182862-47.107605-.192383-.951004-.715378-1.835114-1.068832-2.711411-2.308319-.558593-3.553558 1.042115-4.938965 2.081727-13.507721 10.136123-25.51004 21.902633-37.085022 34.151748-4.056068 4.292328-3.147087 9.991181-4.825615 14.945648-4.485618 13.240174-9.815719 25.903962-20.95536 35.05188-6.967552 5.721802-14.071976 6.357239-19.653977 2.286743-5.783966-4.217743-7.677376-12.259124-5.197098-20.384521 4.131188-13.533844 11.466813-25.30838 21.284279-35.121918 6.139664-6.137237 6.532357-12.782837 5.497177-20.049011-1.476768-10.365799-3.828483-20.574036-7.052978-30.58345-1.136627-3.528321-2.994827-4.649796-6.502213-4.56781-7.662193.179061-15.333496-.050904-22.997108.094879-3.817997.072647-6.299889-1.000855-7.364632-5.059616-.9235-3.52031-2.444873-6.898865-3.873027-10.267578-1.525795-3.599015-.130284-5.87912 3.39505-5.93187 13.993892-.209305 27.993274-.101318 41.990055-.016144 2.225227.01352 3.498634 1.584564 4.380569 3.567795 6.298866 14.164413 11.456696 28.71579 14.962509 43.830246.411385 1.773544.804657 3.520187 2.042961 5.212234 3.949578-1.326065 6.295342-4.487792 9.077752-6.933029 12.147567-10.675491 24.514984-21.064895 37.97348-30.069168 5.129608-3.431915 6.059952-3.126907 8.391891 2.438965 8.93042 21.315018 14.184128 43.551972 16.509369 66.511932.083145.821045.197083 1.644532.383972 2.446564.066727.286316.392472.512268.637436.811554 1.919052.327698 2.997727-1.103973 4.189179-2.170624 12.575149-11.258148 26.233658-21.074249 40.464401-30.085601 3.355255-2.12468 4.756378-4.513794 4.699097-8.504029-.196106-13.663345.056533-27.333008-.126908-40.996719-.059967-4.466156 1.421356-6.318314 6.03534-6.26619 14.831009.167588 29.665786.141297 44.497482.00708 3.774048-.034149 5.902618 1.49553 7.044983 4.968338.987091 3.000595 2.260773 5.905671 3.307617 8.888108 2.065125 5.883514.907898 7.499557-5.463837 7.539673-7.49945.04721-14.999481-.017212-22.499237-.001374-7.213989.015244-7.22705.033097-7.227447 7.05835-.003174 52.831756-.000336 105.663513-.002259 158.49527-.000061 1.66629.112397 3.349273-.078063 4.995483-.414856 3.585236-2.306244 5.227661-5.819123 3.506683-5.6828-2.784057-11.219147-5.867431-16.906097-8.642486-3.110825-1.518006-2.831177-4.155853-2.830475-6.822327.006668-25.33258.008774-50.665192.011658-75.997772.000885-7.801453.000152-15.602875.000152-23.305054-2.83638-.916748-4.303253.756165-5.85553 1.807038-13.677795 9.259704-26.420272 19.705627-38.756668 30.669189-2.486267 2.209564-3.921325 4.858765-4.632019 8.05249-2.148483 9.654907-5.840667 18.728516-10.69017 27.744171z"/><path d="m279.457794 175.279205c-4.936371 10.202561-5.722137 10.601181-16.132232 10.095764-3.832642-.18608-4.859131-1.472915-2.885315-4.927825 3.702026-6.479874 5.958129-13.293259 5.377166-20.957169-.262329-3.460953-1.144684-6.596359-2.967437-9.395401-4.97992-7.647141-12.669419-9.285599-21.019837-8.688767-7.675003.548539-14.109268 3.806992-16.645218 11.477295-2.529892 7.651963-1.635025 15.427491 1.515808 22.912705 1.137177 2.701553 2.996445 5.158935 3.332062 8.135788-7.91246 3.507965-14.050094 1.944504-18.07254-4.909775-4.830536-8.231262-8.050598-16.879425-4.527893-26.613251.202011-.558151.026169-1.253067.026169-2.462173-5.074631 1.284851-9.792893 2.777435-14.623993 3.632187-7.077607 1.252228-14.148011 1.362243-21.241715-.637879-17.173614-4.842224-27.468612-23.456329-20.987335-42.782386.453384-1.351929.626801-3.236123 2.518036-3.308869 2.491669-.095863 1.988861 2.185806 2.449234 3.646149 4.741409 15.04052 14.600204 23.010673 27.620239 22.038719 8.31781-.620941 16.402603-2.546417 24.400772-4.909218 12.419449-3.66893 24.684037-8.018631 37.922119-7.951927 28.244217.142326 45.620316 25.591278 35.411576 52.015717-.419892 1.086868-.880554 2.157974-1.469666 3.590316z"/></svg>

<svg version="1.1" id="Layer_1" xmlns="http://www.w3.org/2000/svg" xmlns:xlink="http://www.w3.org/1999/xlink" x="0px" y="0px"
	 width="100%" viewBox="0 0 336 592" enable-background="new 0 0 336 592" xml:space="preserve">
<path fill="#000000" opacity="1.000000" stroke="none" 
	d="
M182.744873,344.654327 
	C178.996246,351.468689 174.439789,357.165466 168.777069,361.948700 
	C162.633057,367.138458 155.654785,368.118317 149.884247,364.670563 
	C144.621201,361.526001 141.750153,354.285583 143.191086,347.109894 
	C146.276291,331.745941 154.384125,318.864471 164.883667,307.804810 
	C170.240936,302.161743 172.166992,296.103088 172.553986,289.085846 
	C173.429932,273.202118 171.515945,257.524048 168.371124,241.978241 
	C168.178741,241.027237 167.655746,240.143127 167.302292,239.266830 
	C164.993973,238.708237 163.748734,240.308945 162.363327,241.348557 
	C148.855606,251.484680 136.853287,263.251190 125.278305,275.500305 
	C121.222237,279.792633 122.131218,285.491486 120.452690,290.445953 
	C115.967072,303.686127 110.636971,316.349915 99.497330,325.497833 
	C92.529778,331.219635 85.425354,331.855072 79.843353,327.784576 
	C74.059387,323.566833 72.165977,315.525452 74.646255,307.400055 
	C78.777443,293.866211 86.113068,282.091675 95.930534,272.278137 
	C102.070198,266.140900 102.462891,259.495300 101.427711,252.229126 
	C99.950943,241.863327 97.599228,231.655090 94.374733,221.645676 
	C93.238106,218.117355 91.379906,216.995880 87.872520,217.077866 
	C80.210327,217.256927 72.539024,217.026962 64.875412,217.172745 
	C61.057415,217.245392 58.575523,216.171890 57.510780,212.113129 
	C56.587280,208.592819 55.065907,205.214264 53.637753,201.845551 
	C52.111958,198.246536 53.507469,195.966431 57.032803,195.913681 
	C71.026695,195.704376 85.026077,195.812363 99.022858,195.897537 
	C101.248085,195.911057 102.521492,197.482101 103.403427,199.465332 
	C109.702293,213.629745 114.860123,228.181122 118.365936,243.295578 
	C118.777321,245.069122 119.170593,246.815765 120.408897,248.507812 
	C124.358475,247.181747 126.704239,244.020020 129.486649,241.574783 
	C141.634216,230.899292 154.001633,220.509888 167.460129,211.505615 
	C172.589737,208.073700 173.520081,208.378708 175.852020,213.944580 
	C184.782440,235.259598 190.036148,257.496552 192.361389,280.456512 
	C192.444534,281.277557 192.558472,282.101044 192.745361,282.903076 
	C192.812088,283.189392 193.137833,283.415344 193.382797,283.714630 
	C195.301849,284.042328 196.380524,282.610657 197.571976,281.544006 
	C210.147125,270.285858 223.805634,260.469757 238.036377,251.458405 
	C241.391632,249.333725 242.792755,246.944611 242.735474,242.954376 
	C242.539368,229.291031 242.792007,215.621368 242.608566,201.957657 
	C242.548599,197.491501 244.029922,195.639343 248.643906,195.691467 
	C263.474915,195.859055 278.309692,195.832764 293.141388,195.698547 
	C296.915436,195.664398 299.044006,197.194077 300.186371,200.666885 
	C301.173462,203.667480 302.447144,206.572556 303.493988,209.554993 
	C305.559113,215.438507 304.401886,217.054550 298.030151,217.094666 
	C290.530701,217.141876 283.030670,217.077454 275.530914,217.093292 
	C268.316925,217.108536 268.303864,217.126389 268.303467,224.151642 
	C268.300293,276.983398 268.303131,329.815155 268.301208,382.646912 
	C268.301147,384.313202 268.413605,385.996185 268.223145,387.642395 
	C267.808289,391.227631 265.916901,392.870056 262.404022,391.149078 
	C256.721222,388.365021 251.184875,385.281647 245.497925,382.506592 
	C242.387100,380.988586 242.666748,378.350739 242.667450,375.684265 
	C242.674118,350.351685 242.676224,325.019073 242.679108,299.686493 
	C242.679993,291.885040 242.679260,284.083618 242.679260,276.381439 
	C239.842880,275.464691 238.376007,277.137604 236.823730,278.188477 
	C223.145935,287.448181 210.403458,297.894104 198.067062,308.857666 
	C195.580795,311.067230 194.145737,313.716431 193.435043,316.910156 
	C191.286560,326.565063 187.594376,335.638672 182.744873,344.654327 
z"/>
<path fill="#000000" opacity="1.000000" stroke="none" 
	d="
M279.457794,175.279205 
	C274.521423,185.481766 273.735657,185.880386 263.325562,185.374969 
	C259.492920,185.188889 258.466431,183.902054 260.440247,180.447144 
	C264.142273,173.967270 266.398376,167.153885 265.817413,159.489975 
	C265.555084,156.029022 264.672729,152.893616 262.849976,150.094574 
	C257.870056,142.447433 250.180557,140.808975 241.830139,141.405807 
	C234.155136,141.954346 227.720871,145.212799 225.184921,152.883102 
	C222.655029,160.535065 223.549896,168.310593 226.700729,175.795807 
	C227.837906,178.497360 229.697174,180.954742 230.032791,183.931595 
	C222.120331,187.439560 215.982697,185.876099 211.960251,179.021820 
	C207.129715,170.790558 203.909653,162.142395 207.432358,152.408569 
	C207.634369,151.850418 207.458527,151.155502 207.458527,149.946396 
	C202.383896,151.231247 197.665634,152.723831 192.834534,153.578583 
	C185.756927,154.830811 178.686523,154.940826 171.592819,152.940704 
	C154.419205,148.098480 144.124207,129.484375 150.605484,110.158318 
	C151.058868,108.806389 151.232285,106.922195 153.123520,106.849449 
	C155.615189,106.753586 155.112381,109.035255 155.572754,110.495598 
	C160.314163,125.536118 170.172958,133.506271 183.192993,132.534317 
	C191.510803,131.913376 199.595596,129.987900 207.593765,127.625099 
	C220.013214,123.956169 232.277802,119.606468 245.515884,119.673172 
	C273.760101,119.815498 291.136200,145.264450 280.927460,171.688889 
	C280.507568,172.775757 280.046906,173.846863 279.457794,175.279205 
z"/>
</svg>
